packages/components/bolt-icons/src/svgs/brand/brand-operations.svg

<?xml version="1.0" encoding="UTF-8"?>
<svg width="32px" height="32px" viewBox="0 0 32 32" version="1.1" xmlns="http://www.w3.org/2000/svg" xmlns:xlink="http://www.w3.org/1999/xlink">
    <!-- Generator: Sketch 49.3 (51167) - http://www.bohemiancoding.com/sketch -->
    <title>brand/product/brand-operations</title>
    <desc>Created with Sketch.</desc>
    <defs>
        <path d="M16.854,19.7969 L25.431,8.5679 L14.202,17.1449 C13.39,17.8609 13.351,19.1159 14.117,19.8819 C14.883,20.6489 16.137,20.6089 16.854,19.7969 Z M19.428,4.0199 C18.787,3.8359 18.125,3.7029 17.461,3.6259 L17.239,5.5299 C17.8,5.5959 18.359,5.7069 18.9,5.8609 L19.428,4.0199 Z M13.86,5.6749 L13.473,3.7979 C12.82,3.9329 12.173,4.1219 11.548,4.3609 L12.234,6.1509 C12.762,5.9489 13.309,5.7889 13.86,5.6749 Z M24.598,6.9839 C24.116,6.5249 23.593,6.0999 23.042,5.7229 L21.958,7.3029 C22.424,7.6229 22.867,7.9829 23.275,8.3709 L24.598,6.9839 Z M9.312,7.8519 L8.096,6.3689 C7.581,6.7929 7.095,7.2609 6.655,7.7609 L8.092,9.0279 C8.465,8.6059 8.875,8.2089 9.312,7.8519 Z M27.804,12.0089 C27.591,11.3779 27.324,10.7579 27.011,10.1669 L25.317,11.0659 C25.583,11.5659 25.809,12.0889 25.989,12.6219 L27.804,12.0089 Z M6.29,11.8889 L4.525,11.1409 C4.265,11.7559 4.053,12.3969 3.895,13.0449 L5.757,13.4979 C5.89,12.9499 6.07,12.4079 6.29,11.8889 Z M28.458,15.9999 L28.458,15.9519 L26.542,15.9999 C26.542,16.5679 26.496,17.1369 26.407,17.6919 L28.299,17.9959 C28.405,17.3409 28.458,16.6699 28.458,15.9999 Z M5.767,18.5429 C5.632,17.9969 5.54,17.4339 5.494,16.8689 L3.583,17.0259 C3.638,17.6929 3.747,18.3589 3.907,19.0039 L5.767,18.5429 Z M27.035,21.7879 L25.338,20.8959 C25.076,21.3949 24.771,21.8769 24.431,22.3299 L25.963,23.4809 C26.365,22.9459 26.725,22.3759 27.035,21.7879 Z M8.119,23.0019 C7.743,22.5789 7.4,22.1239 7.098,21.6499 L5.48,22.6769 C5.837,23.2379 6.243,23.7759 6.687,24.2759 L8.119,23.0019 Z M16,1.9999 C8.28,1.9999 2,8.2799 2,15.9999 C2,23.7199 8.28,29.9999 16,29.9999 C23.72,29.9999 30,23.7199 30,15.9999 C30,8.2799 23.72,1.9999 16,1.9999 Z M16,31.9999 C7.178,31.9999 0,24.8219 0,15.9999 C0,7.1779 7.178,-0.0001 16,-0.0001 C24.822,-0.0001 32,7.1779 32,15.9999 C32,24.8219 24.822,31.9999 16,31.9999 Z" id="path-1"></path>
    </defs>
    <g id="brand/product/brand-operations" stroke="none" stroke-width="1" fill="none" fill-rule="evenodd">
        <mask id="mask-2" fill="white">
            <use xlink:href="#path-1"></use>
        </mask>
        <use id="Mask" fill="#1F2555" xlink:href="#path-1"></use>
        <g id="z_atom/Color/brand-black" mask="url(#mask-2)" fill="#2D2E33">
            <rect id="Rectangle-15" x="0" y="0" width="32" height="32"></rect>
        </g>
    </g>
</svg>

<svg id="b0f36f70-c80f-46c0-bc35-90d3e7ba5610" data-name="Layer 1" xmlns="http://www.w3.org/2000/svg" viewBox="0 0 32 32"><title>brand-operations</title><path id="a64eac5f-a5c1-4db4-800c-9439f16419b7" data-name="path-1" d="M16.9,19.8,25.5,8.6,14.3,17.2a1.82,1.82,0,0,0-.1,2.7A1.91,1.91,0,0,0,16.9,19.8ZM19.4,4a11.8,11.8,0,0,0-2-.4l-.2,1.9,1.7.3ZM13.9,5.7l-.4-1.9a6,6,0,0,0-1.9.6l.7,1.8A4.28,4.28,0,0,1,13.9,5.7ZM24.6,7A10.1,10.1,0,0,0,23,5.7L22,7.3a6.89,6.89,0,0,1,1.3,1.1ZM9.3,7.9,8.1,6.4A9.27,9.27,0,0,0,6.7,7.8L8.1,9A12,12,0,0,1,9.3,7.9ZM27.8,12a9.82,9.82,0,0,0-.8-1.8l-1.7.9a7.74,7.74,0,0,1,.7,1.6ZM6.3,11.9l-1.8-.7a7,7,0,0,0-.6,1.9l1.9.5A6.87,6.87,0,0,1,6.3,11.9ZM28.5,16H26.6a9.7,9.7,0,0,1-.1,1.7l1.9.3C28.4,17.3,28.5,16.7,28.5,16ZM5.8,18.5c-.1-.5-.2-1.1-.3-1.7L3.6,17c.1.7.2,1.3.3,2ZM27,21.8l-1.7-.9c-.3.5-.6,1-.9,1.4l1.5,1.2A8.16,8.16,0,0,0,27,21.8ZM8.1,23a7.1,7.1,0,0,1-1-1.4l-1.6,1c.4.6.8,1.1,1.2,1.6ZM16,2A14,14,0,1,0,30,16,14,14,0,0,0,16,2Zm0,30A16,16,0,1,1,32,16,16,16,0,0,1,16,32Z" fill="#1f2555" fill-rule="evenodd"/></svg>
